build/system/SaveSolid.svg

<svg xmlns="http://www.w3.org/2000/svg" fill="none" viewBox="0 0 24 24" focusable="false"><path d="M0 0H24V24H0z"/><path fill="#74767B" fill-rule="evenodd" d="M7 4C5.34315 4 4 5.34315 4 7L4 17C4 18.6569 5.34315 20 7 20L17 20C18.6569 20 20 18.6569 20 17L20 10.2426C20 9.44699 19.6839 8.68393 19.1213 8.12132L15.8787 4.87868C15.3161 4.31607 14.553 4 13.7574 4L7 4ZM7.28906 6.00981C7.28906 5.62322 7.60246 5.30981 7.98906 5.30981L12.646 5.30981C13.0326 5.30981 13.346 5.62322 13.346 6.00981L13.346 8.64763C13.346 9.03423 13.0326 9.34763 12.646 9.34763L7.98906 9.34763C7.60246 9.34763 7.28906 9.03423 7.28906 8.64763L7.28906 6.00981ZM7.3125 13.3484C7.3125 12.9618 7.6259 12.6484 8.0125 12.6484L15.0109 12.6484C15.3975 12.6484 15.7109 12.9618 15.7109 13.3484L15.7109 17.998C15.7109 18.3846 15.3975 18.698 15.0109 18.698L8.0125 18.698C7.6259 18.698 7.3125 18.3846 7.3125 17.998L7.3125 13.3484Z"/></svg>

<svg xmlns="http://www.w3.org/2000/svg" fill="none" viewBox="0 0 24 24" focusable="false"><path fill="#74767B" fill-rule="evenodd" d="M7 4C5.34 4 4 5.34 4 7v10c0 1.65 1.34 3 3 3h10c1.65 0 3-1.35 3-3v-6.76c0-.8-.32-1.56-.88-2.12l-3.25-3.25c-.56-.56-1.32-.87-2.12-.87zm.28 2c0-.38.32-.7.7-.7h4.66c.39 0 .7.32.7.7v2.64c0 .39-.31.7-.7.7H7.98c-.38 0-.7-.31-.7-.7zm.03 7.34c0-.38.31-.7.7-.7h7c.38 0 .7.32.7.7v4.65c0 .39-.32.7-.7.7h-7c-.39 0-.7-.31-.7-.7z"/></svg>
